X:1
T:Poll and Sal
M:6/8
L:1/8
K:C
 E| E2 E c2 c|d-c B A2 G| G2 G c2 E|E-D C D2^G/2-A/2|E-A A A2 B|c-B A B2 ^G|\
 A2 A =G2 E|E-D C D3| EEA A2- B| cBA B2||
